Newaita-dark/mimetypes/32/text-x-csharp.svg

<?xml version="1.0" encoding="UTF-8"?>
<svg xmlns="http://www.w3.org/2000/svg" xmlns:xlink="http://www.w3.org/1999/xlink" width="32px" height="32px" viewBox="0 0 32 32" version="1.1">
<defs>
<linearGradient id="linear0" gradientUnits="userSpaceOnUse" x1="254" y1="233.5" x2="254" y2="254.666672" gradientTransform="matrix(0.062506,0,0,0.062506,0.66152,13.438783)">
<stop offset="0" style="stop-color:rgb(0%,0%,0%);stop-opacity:0.27451;"/>
<stop offset="1" style="stop-color:rgb(0%,0%,0%);stop-opacity:0;"/>
</linearGradient>
<radialGradient id="radial0" gradientUnits="userSpaceOnUse" cx="450.908936" cy="189.579361" fx="450.908936" fy="189.579361" r="21.166656" gradientTransform="matrix(0.00000017417,-0.0781325,-0.140638,-0.000000101539,49.484569,63.595331)">
<stop offset="0" style="stop-color:rgb(0%,0%,0%);stop-opacity:0.313726;"/>
<stop offset="0.222222" style="stop-color:rgb(0%,0%,0%);stop-opacity:0.27451;"/>
<stop offset="1" style="stop-color:rgb(0%,0%,0%);stop-opacity:0;"/>
</radialGradient>
<radialGradient id="radial1" gradientUnits="userSpaceOnUse" cx="450.908936" cy="189.579361" fx="450.908936" fy="189.579361" r="21.166656" gradientTransform="matrix(-0.00000017417,0.0781325,0.140638,0.000000101539,-18.393049,-7.527481)">
<stop offset="0" style="stop-color:rgb(0%,0%,0%);stop-opacity:0.313726;"/>
<stop offset="0.222222" style="stop-color:rgb(0%,0%,0%);stop-opacity:0.27451;"/>
<stop offset="1" style="stop-color:rgb(0%,0%,0%);stop-opacity:0;"/>
</radialGradient>
<radialGradient id="radial2" gradientUnits="userSpaceOnUse" cx="450.908936" cy="189.579361" fx="450.908936" fy="189.579361" r="21.166656" gradientTransform="matrix(-0.00000017417,-0.0781325,0.140638,-0.000000101539,-18.393049,63.595331)">
<stop offset="0" style="stop-color:rgb(0%,0%,0%);stop-opacity:0.313726;"/>
<stop offset="0.222222" style="stop-color:rgb(0%,0%,0%);stop-opacity:0.27451;"/>
<stop offset="1" style="stop-color:rgb(0%,0%,0%);stop-opacity:0;"/>
</radialGradient>
<radialGradient id="radial3" gradientUnits="userSpaceOnUse" cx="450.908936" cy="189.579361" fx="450.908936" fy="189.579361" r="21.166656" gradientTransform="matrix(0.00000017417,0.0781325,-0.140638,0.000000101539,49.484567,-7.527481)">
<stop offset="0" style="stop-color:rgb(0%,0%,0%);stop-opacity:0.313726;"/>
<stop offset="0.222222" style="stop-color:rgb(0%,0%,0%);stop-opacity:0.27451;"/>
<stop offset="1" style="stop-color:rgb(0%,0%,0%);stop-opacity:0;"/>
</radialGradient>
<linearGradient id="linear1" gradientUnits="userSpaceOnUse" x1="940" y1="1695.118164" x2="940" y2="175.118118" gradientTransform="matrix(0.016538,0,0,0.016538,0,0)">
<stop offset="0" style="stop-color:rgb(50.196081%,87.058824%,91.764706%);stop-opacity:1;"/>
<stop offset="1" style="stop-color:rgb(69.803923%,92.156863%,94.901961%);stop-opacity:1;"/>
</linearGradient>
<linearGradient id="linear2" gradientUnits="userSpaceOnUse" x1="249.189423" y1="233.5" x2="249.189423" y2="254.666687" gradientTransform="matrix(0.0298942,0,0,0.109385,15.042422,-16.360911)">
<stop offset="0" style="stop-color:rgb(0%,0%,0%);stop-opacity:0.27451;"/>
<stop offset="1" style="stop-color:rgb(0%,0%,0%);stop-opacity:0;"/>
</linearGradient>
<linearGradient id="linear3" gradientUnits="userSpaceOnUse" x1="338.666656" y1="233.5" x2="338.666656" y2="-168.666672" gradientTransform="matrix(0.062506,0,0,0.062506,0,13.438783)">
<stop offset="0" style="stop-color:rgb(14.901961%,77.64706%,85.490197%);stop-opacity:1;"/>
<stop offset="1" style="stop-color:rgb(30.19608%,81.568629%,88.235295%);stop-opacity:1;"/>
</linearGradient>
<linearGradient id="linear4" gradientUnits="userSpaceOnUse" x1="4612.755859" y1="7219.344238" x2="4612.755859" y2="1474.462158" gradientTransform="matrix(0.264583,0,0,0.264583,-280.458344,-215)">
<stop offset="0" style="stop-color:rgb(14.901961%,77.64706%,85.490197%);stop-opacity:1;"/>
<stop offset="1" style="stop-color:rgb(30.19608%,81.568629%,88.235295%);stop-opacity:1;"/>
</linearGradient>
</defs>
<g id="surface1">
<path style=" stroke:none;fill-rule:nonzero;fill:url(#linear0);" d="M 7.9375 28.035156 L 23.152344 28.035156 L 23.152344 29.355469 L 7.9375 29.355469 Z M 7.9375 28.035156 "/>
<path style=" stroke:none;fill-rule:nonzero;fill:url(#radial0);" d="M 23.152344 28.035156 L 25.800781 28.035156 L 25.800781 26.710938 L 23.152344 26.710938 Z M 23.152344 28.035156 "/>
<path style=" stroke:none;fill-rule:nonzero;fill:url(#radial1);" d="M 7.9375 28.035156 L 5.292969 28.035156 L 5.292969 29.355469 L 7.9375 29.355469 Z M 7.9375 28.035156 "/>
<path style=" stroke:none;fill-rule:nonzero;fill:url(#radial2);" d="M 7.9375 28.035156 L 5.292969 28.035156 L 5.292969 26.710938 L 7.9375 26.710938 Z M 7.9375 28.035156 "/>
<path style=" stroke:none;fill-rule:nonzero;fill:url(#radial3);" d="M 23.152344 28.035156 L 25.800781 28.035156 L 25.800781 29.355469 L 23.152344 29.355469 Z M 23.152344 28.035156 "/>
<path style=" stroke:none;fill-rule:nonzero;fill:url(#linear1);" d="M 18.542969 2.894531 L 6.613281 2.894531 C 5.882812 2.894531 5.292969 3.484375 5.292969 4.21875 L 5.292969 26.710938 C 5.292969 27.445312 5.882812 28.035156 6.613281 28.035156 L 24.476562 28.035156 C 25.210938 28.035156 25.800781 27.445312 25.800781 26.710938 L 25.800781 10.152344 Z M 18.542969 2.894531 "/>
<path style=" stroke:none;fill-rule:nonzero;fill:rgb(0%,0%,0%);fill-opacity:0.235294;" d="M 5.292969 26.195312 L 5.292969 26.710938 C 5.292969 27.445312 5.882812 28.035156 6.613281 28.035156 L 24.476562 28.035156 C 25.210938 28.035156 25.800781 27.445312 25.800781 26.710938 L 25.800781 26.195312 C 25.800781 26.929688 25.210938 27.519531 24.476562 27.519531 L 6.613281 27.519531 C 5.882812 27.519531 5.292969 26.929688 5.292969 26.195312 Z M 5.292969 26.195312 "/>
<path style=" stroke:none;fill-rule:nonzero;fill:url(#linear2);" d="M 18.523438 9.179688 L 24.808594 9.179688 L 25.800781 10.171875 L 25.800781 11.496094 L 18.523438 11.496094 Z M 18.523438 9.179688 "/>
<path style=" stroke:none;fill-rule:nonzero;fill:rgb(96.470588%,96.470588%,96.470588%);fill-opacity:0.588235;" d="M 6.613281 2.894531 C 5.882812 2.894531 5.292969 3.484375 5.292969 4.21875 L 5.292969 4.714844 C 5.292969 3.980469 5.882812 3.390625 6.613281 3.390625 L 18.542969 3.390625 L 25.800781 10.648438 L 25.800781 10.152344 L 18.542969 2.894531 Z M 6.613281 2.894531 "/>
<path style=" stroke:none;fill-rule:nonzero;fill:url(#linear3);" d="M 25.800781 10.152344 L 18.542969 2.894531 L 18.542969 8.832031 C 18.542969 9.5625 19.132812 10.152344 19.863281 10.152344 Z M 25.800781 10.152344 "/>
<path style=" stroke:none;fill-rule:nonzero;fill:rgb(0%,0%,0%);fill-opacity:0.235294;" d="M 18.542969 8.519531 L 18.542969 8.832031 C 18.542969 9.5625 19.132812 10.152344 19.863281 10.152344 L 25.800781 10.152344 L 25.488281 9.84375 L 19.863281 9.84375 C 19.132812 9.84375 18.542969 9.253906 18.542969 8.519531 Z M 18.542969 8.519531 "/>
<path style=" stroke:none;fill-rule:nonzero;fill:rgb(100%,100%,100%);fill-opacity:0.392157;" d="M 18.542969 2.894531 L 18.542969 3.390625 L 25.304688 10.152344 L 25.800781 10.152344 Z M 18.542969 2.894531 "/>
<path style=" stroke:none;fill-rule:nonzero;fill:rgb(12.941177%,12.941177%,12.941177%);fill-opacity:1;" d="M 18.539062 2.800781 C 18.488281 2.804688 18.449219 2.84375 18.449219 2.894531 L 18.449219 8.832031 C 18.449219 9.613281 19.082031 10.246094 19.863281 10.246094 L 25.800781 10.246094 C 25.835938 10.246094 25.871094 10.222656 25.886719 10.1875 C 25.902344 10.152344 25.890625 10.113281 25.867188 10.085938 L 18.609375 2.828125 C 18.589844 2.8125 18.566406 2.800781 18.539062 2.800781 Z M 18.636719 3.121094 L 25.574219 10.058594 L 19.863281 10.058594 C 19.183594 10.058594 18.636719 9.511719 18.636719 8.832031 Z M 18.636719 3.121094 "/>
<path style=" stroke:none;fill-rule:nonzero;fill:rgb(12.941177%,12.941177%,12.941177%);fill-opacity:1;" d="M 6.613281 2.800781 C 5.832031 2.800781 5.199219 3.4375 5.199219 4.21875 L 5.199219 26.710938 C 5.199219 27.496094 5.832031 28.128906 6.613281 28.128906 L 24.476562 28.128906 C 25.257812 28.128906 25.894531 27.496094 25.894531 26.710938 L 25.894531 10.152344 C 25.894531 10.128906 25.882812 10.105469 25.867188 10.085938 L 18.609375 2.828125 C 18.589844 2.8125 18.566406 2.800781 18.542969 2.800781 Z M 6.613281 2.988281 L 18.503906 2.988281 L 25.707031 10.191406 L 25.707031 26.710938 C 25.707031 27.394531 25.160156 27.941406 24.476562 27.941406 L 6.613281 27.941406 C 5.933594 27.941406 5.386719 27.394531 5.386719 26.710938 L 5.386719 4.21875 C 5.386719 3.535156 5.933594 2.988281 6.613281 2.988281 Z M 6.613281 2.988281 "/>
<path style="fill-rule:nonzero;fill:url(#linear4);stroke-width:11.338583;stroke-linecap:round;stroke-linejoin:round;stroke:rgb(12.941177%,12.941177%,12.941177%);stroke-opacity:1;stroke-miterlimit:4;" d="M 779.925562 695.130505 C 768.824259 695.130505 760.084936 704.106027 760.084936 715.207329 L 760.084936 815.119053 L 680.013838 815.119053 C 668.912535 815.119053 659.937014 824.094575 659.937014 835.195877 L 659.937014 875.113327 C 659.937014 886.21463 668.912535 895.190151 680.013838 895.190151 L 760.084936 895.190151 L 760.084936 1055.096149 L 680.013838 1055.096149 C 668.912535 1055.096149 659.937014 1064.071671 659.937014 1075.172973 L 659.937014 1115.090423 C 659.937014 1126.191726 668.912535 1135.167247 680.013838 1135.167247 L 760.084936 1135.167247 L 760.084936 1235.078971 C 760.084936 1246.180274 768.824259 1255.155795 779.925562 1255.155795 L 820.07921 1255.155795 C 831.180512 1255.155795 839.919836 1246.180274 839.919836 1235.078971 L 839.919836 1135.167247 L 1039.979482 1135.167247 L 1039.979482 1235.078971 C 1039.979482 1246.180274 1048.955003 1255.155795 1060.056306 1255.155795 L 1099.973756 1255.155795 C 1111.075058 1255.155795 1120.05058 1246.180274 1120.05058 1235.078971 L 1120.05058 1135.167247 L 1199.88548 1135.167247 C 1210.986782 1135.167247 1219.962304 1126.191726 1219.962304 1115.090423 L 1219.962304 1075.172973 C 1219.962304 1064.071671 1210.986782 1055.096149 1199.88548 1055.096149 L 1120.05058 1055.096149 L 1120.05058 895.190151 L 1199.88548 895.190151 C 1210.986782 895.190151 1219.962304 886.21463 1219.962304 875.113327 L 1219.962304 835.195877 C 1219.962304 824.094575 1210.986782 815.119053 1199.88548 815.119053 L 1120.05058 815.119053 L 1120.05058 715.207329 C 1120.05058 704.106027 1111.075058 695.130505 1099.973756 695.130505 L 1060.056306 695.130505 C 1048.955003 695.130505 1039.979482 704.106027 1039.979482 715.207329 L 1039.979482 815.119053 L 839.919836 815.119053 L 839.919836 715.207329 C 839.919836 704.106027 831.180512 695.130505 820.07921 695.130505 Z M 839.919836 895.190151 L 1039.979482 895.190151 L 1039.979482 1055.096149 L 839.919836 1055.096149 Z M 839.919836 895.190151 " transform="matrix(0.016538,0,0,0.016538,0,0)"/>
</g>
</svg>

<svg height="32pt" viewBox="0 0 32 32" width="32pt" xmlns="http://www.w3.org/2000/svg" xmlns:xlink="http://www.w3.org/1999/xlink"><linearGradient id="a"><stop offset="0" stop-opacity=".275"/><stop offset="1" stop-opacity="0"/></linearGradient><linearGradient id="b" gradientUnits="userSpaceOnUse" x1="16.537" x2="16.537" xlink:href="#a" y1="28.03275" y2="29.3556875"/><linearGradient id="c"><stop offset="0" stop-opacity=".314"/><stop offset=".222" stop-opacity=".275"/><stop offset="1" stop-opacity="0"/></linearGradient><radialGradient id="d" cx="450.909" cy="189.579" gradientTransform="matrix(0 -.07813 -.14064 0 49.485 63.595)" gradientUnits="userSpaceOnUse" r="21.167" xlink:href="#c"/><radialGradient id="e" cx="450.909" cy="189.579" gradientTransform="matrix(0 .07813 .14064 0 -18.393 -7.527)" gradientUnits="userSpaceOnUse" r="21.167" xlink:href="#c"/><radialGradient id="f" cx="450.909" cy="189.579" gradientTransform="matrix(0 -.07813 .14064 0 -18.393 63.595)" gradientUnits="userSpaceOnUse" r="21.167" xlink:href="#c"/><radialGradient id="g" cx="450.909" cy="189.579" gradientTransform="matrix(0 .07813 -.14064 0 49.485 -7.527)" gradientUnits="userSpaceOnUse" r="21.167" xlink:href="#c"/><linearGradient id="h" gradientTransform="matrix(.016538 .0002572 -.0002572 .016538 0 0)" gradientUnits="userSpaceOnUse" x1="940" x2="940" y1="1695.118" y2="175.118"><stop offset="0" stop-color="#80deea"/><stop offset="1" stop-color="#b2ebf2"/></linearGradient><linearGradient id="i" gradientTransform="matrix(.0299 0 0 .10938 15.042 -16.36)" gradientUnits="userSpaceOnUse" x1="249.189" x2="249.189" xlink:href="#a" y1="233.5" y2="254.667"/><linearGradient id="j"><stop offset="0" stop-color="#26c6da"/><stop offset="1" stop-color="#4dd0e1"/></linearGradient><linearGradient id="k" gradientUnits="userSpaceOnUse" x1="21.1666875" x2="21.1666875" xlink:href="#j" y1="28.03275" y2="2.8973125"/><linearGradient id="l" gradientUnits="userSpaceOnUse" x1="939.98498248" x2="939.98498248" xlink:href="#j" y1="1695.09403552" y2="175.11315596"/><path d="m7.938 28.035h15.214v1.32h-15.215zm0 0" fill="url(#b)"/><path d="m23.152 28.035h2.649v-1.324h-2.649zm0 0" fill="url(#d)"/><path d="m7.938 28.035h-2.645v1.32h2.644zm0 0" fill="url(#e)"/><path d="m7.938 28.035h-2.645v-1.324h2.644zm0 0" fill="url(#f)"/><path d="m23.152 28.035h2.649v1.32h-2.649zm0 0" fill="url(#g)"/><path d="m18.543 2.895h-11.93c-.73 0-1.32.59-1.32 1.324v22.491c0 .734.59 1.324 1.32 1.324h17.864a1.32 1.32 0 0 0 1.324-1.324v-16.558zm0 0" fill="url(#h)"/><path d="m5.293 26.195v.516c0 .734.59 1.324 1.32 1.324h17.864a1.32 1.32 0 0 0 1.324-1.324v-.516a1.32 1.32 0 0 1 -1.324 1.325h-17.864c-.73 0-1.32-.59-1.32-1.325zm0 0" fill-opacity=".235"/><path d="m18.523 9.18h6.286l.992.992v1.324h-7.278zm0 0" fill="url(#i)"/><path d="m6.613 2.895c-.73 0-1.32.59-1.32 1.324v.496c0-.735.59-1.324 1.32-1.324h11.93l7.258 7.257v-.496l-7.258-7.257zm0 0" fill="#f6f6f6" fill-opacity=".588"/><path d="m25.8 10.152-7.257-7.257v5.937c0 .73.59 1.32 1.32 1.32zm0 0" fill="url(#k)"/><path d="m18.543 8.52v.312c0 .73.59 1.32 1.32 1.32h5.938l-.313-.308h-5.625c-.73 0-1.32-.59-1.32-1.324zm0 0" fill-opacity=".235"/><path d="m18.543 2.895v.496l6.762 6.761h.496zm0 0" fill="#fff" fill-opacity=".392"/><path d="m18.54 2.8a.094.094 0 0 0 -.09.095v5.937c0 .781.632 1.414 1.413 1.414h5.938c.035 0 .07-.023.086-.059.015-.035.004-.074-.02-.101l-7.257-7.258a.112.112 0 0 0 -.07-.027zm.097.321 6.937 6.938h-5.71c-.68 0-1.227-.547-1.227-1.227zm0 0" fill="#212121"/><path d="m6.613 2.8c-.781 0-1.413.639-1.413 1.42v22.49c0 .785.633 1.418 1.414 1.418h17.864c.78 0 1.418-.633 1.418-1.418v-16.558a.11.11 0 0 0 -.028-.066l-7.258-7.258a.11.11 0 0 0 -.066-.027zm0 .188h11.89l7.204 7.203v16.52c0 .684-.547 1.23-1.23 1.23h-17.864c-.68 0-1.226-.546-1.226-1.23v-22.492c0-.684.547-1.23 1.226-1.23zm0 0" fill="#212121"/><path d="m779.926 695.13c-11.102 0-19.841 8.976-19.841 20.077v99.912h-80.071c-11.101 0-20.077 8.976-20.077 20.077v39.917c0 11.102 8.976 20.077 20.077 20.077h80.07v159.906h-80.07c-11.101 0-20.077 8.976-20.077 20.077v39.917c0 11.102 8.976 20.077 20.077 20.077h80.07v99.912c0 11.101 8.74 20.077 19.842 20.077h40.153c11.102 0 19.84-8.976 19.84-20.077v-99.912h200.06v99.912c0 11.101 8.976 20.077 20.077 20.077h39.918c11.101 0 20.077-8.976 20.077-20.077v-99.912h79.834c11.102 0 20.077-8.975 20.077-20.077v-39.917c0-11.101-8.975-20.077-20.077-20.077h-79.834v-159.906h79.834c11.102 0 20.077-8.975 20.077-20.077v-39.917c0-11.101-8.975-20.077-20.077-20.077h-79.834v-99.912c0-11.101-8.976-20.076-20.077-20.076h-39.918c-11.101 0-20.077 8.975-20.077 20.076v99.912h-200.059v-99.912c0-11.101-8.738-20.076-19.84-20.076zm59.994 200.06h200.06v159.906h-200.06zm0 0" fill="url(#l)" stroke="#212121" stroke-linecap="round" stroke-linejoin="round" stroke-width="11.339" transform="matrix(.016538 .0002572 -.0002572 .016538 0 0)"/></svg>
